X:89
T:Rose and Colin. THO5.089
M:6/8
L:1/8
B:Thompson's Complete Collection of 200 Favourite Dances Vol.5
F:https://www.libraryofdance.org/manuals/1780c-Thompson-Compleat-5.pdf
Z:vmp. Peter Dunk 2024
Q:3/8=100
K:G
d2B g2d|bag fed|efg dcB|ABG FED|
d2B g2d|bag fed|^cde fga|gfe d3:|
|:dBd gdb|cAc fca|gfe dcB|ABG FED|
GDB GdB|gdb gdB|ecg dcB|AGF G3:|
W:
W:Turn your Partner with your right hand and cast off ./.
W:Turn left hands and cast off another Couple ./:
W:Lead up to the top and cast off :/.
W:Right and Left :/:

